Sources/FrostedUI/Resources/Icons.xcassets/photo16.imageset/photo-16.svg

<svg width="16" height="16" viewBox="0 0 16 16" fill="none" xmlns="http://www.w3.org/2000/svg" data-fui-icon="true">
  <path
    d="M12.5098 0C14.4372 0 16 1.56276 16 3.49023V12.5098C16 14.4372 14.4372 16 12.5098 16H3.49023C1.56276 16 0 14.4372 0 12.5098V3.49023C0 1.56276 1.56276 0 3.49023 0H12.5098ZM5.50098 8.75C5.01197 8.75011 4.5496 8.97399 4.24609 9.35742L1.58789 12.7158C1.56741 12.7417 1.5445 12.7647 1.52148 12.7871C1.65647 13.7548 2.48533 14.5 3.49023 14.5H11.7178L6.6543 9.24023C6.35259 8.92694 5.93593 8.75 5.50098 8.75ZM3.49023 1.5C2.39119 1.5 1.5 2.39119 1.5 3.49023V10.4092L3.07031 8.42578C3.65833 7.68312 4.55371 7.25011 5.50098 7.25C6.34369 7.25 7.15087 7.59312 7.73535 8.2002L13.5283 14.2168C14.1095 13.8693 14.5 13.2361 14.5 12.5098V3.49023C14.5 2.39119 13.6088 1.5 12.5098 1.5H3.49023ZM10.5 3C11.8807 3 13 4.11929 13 5.5C13 6.88071 11.8807 8 10.5 8C9.11929 8 8 6.88071 8 5.5C8 4.11929 9.11929 3 10.5 3ZM10.5 4.5C9.94771 4.5 9.5 4.94772 9.5 5.5C9.5 6.05228 9.94771 6.5 10.5 6.5C11.0523 6.5 11.5 6.05228 11.5 5.5C11.5 4.94772 11.0523 4.5 10.5 4.5Z"
    fill="currentColor"
  />
</svg>

<svg xmlns="http://www.w3.org/2000/svg" width="16" height="16" fill="none" data-fui-icon="true" viewBox="0 0 16 16"><path fill="currentColor" d="M12.51 0A3.49 3.49 0 0 1 16 3.49v9.02A3.49 3.49 0 0 1 12.51 16H3.49A3.49 3.49 0 0 1 0 12.51V3.49A3.49 3.49 0 0 1 3.49 0zM5.5 8.75c-.489 0-.951.224-1.255.607l-2.658 3.359a1 1 0 0 1-.067.071 1.99 1.99 0 0 0 1.97 1.713h8.227L6.654 9.24a1.6 1.6 0 0 0-1.153-.49M3.491 1.5A1.99 1.99 0 0 0 1.5 3.49v6.92l1.57-1.984A3.1 3.1 0 0 1 7.735 8.2l5.793 6.017c.582-.348.972-.98.972-1.707V3.49a1.99 1.99 0 0 0-1.99-1.99zM10.5 3a2.5 2.5 0 1 1 0 5 2.5 2.5 0 0 1 0-5m0 1.5a1 1 0 1 0 0 2 1 1 0 0 0 0-2"/></svg>
